Numix/16/status/indicator-keyboard-Et.svg

<?xml version="1.0" encoding="UTF-8" standalone="no"?>
<svg
   xmlns:dc="http://purl.org/dc/elements/1.1/"
   xmlns:cc="http://creativecommons.org/ns#"
   xmlns:rdf="http://www.w3.org/1999/02/22-rdf-syntax-ns#"
   xmlns:svg="http://www.w3.org/2000/svg"
   xmlns="http://www.w3.org/2000/svg"
   xmlns:sodipodi="http://sodipodi.sourceforge.net/DTD/sodipodi-0.dtd"
   xmlns:inkscape="http://www.inkscape.org/namespaces/inkscape"
   viewBox="0 0 16 16"
   id="svg2"
   version="1.1"
   inkscape:version="0.91 r13725"
   sodipodi:docname="indicator-keyboard-Et.svg">
  <metadata
     id="metadata13">
    <rdf:RDF>
      <cc:Work
         rdf:about="">
        <dc:format>image/svg+xml</dc:format>
        <dc:type
           rdf:resource="http://purl.org/dc/dcmitype/StillImage" />
      </cc:Work>
    </rdf:RDF>
  </metadata>
  <defs
     id="defs11" />
  <sodipodi:namedview
     pagecolor="#ffffff"
     bordercolor="#666666"
     borderopacity="1"
     objecttolerance="10"
     gridtolerance="10"
     guidetolerance="10"
     inkscape:pageopacity="0"
     inkscape:pageshadow="2"
     inkscape:window-width="640"
     inkscape:window-height="480"
     id="namedview9"
     showgrid="false"
     inkscape:zoom="14.75"
     inkscape:cx="8"
     inkscape:cy="8"
     inkscape:window-x="65"
     inkscape:window-y="24"
     inkscape:window-maximized="0"
     inkscape:current-layer="svg2" />
  <path
     style="fill:#ececec;fill-opacity:1"
     d="M 1.5996094 0 C 0.71320937 2.9605947e-16 0 0.71320937 0 1.5996094 L 0 14.400391 C 2.9605947e-16 15.286791 0.71320937 16 1.5996094 16 L 14.400391 16 C 15.286791 16 16 15.286791 16 14.400391 L 16 1.5996094 C 16 0.71320937 15.286791 0 14.400391 0 L 1.5996094 0 z M 4.2207031 4.8320312 L 7.8222656 4.8320312 L 7.8222656 5.3632812 L 4.8339844 5.3632812 L 4.8339844 7.53125 L 7.4980469 7.53125 L 7.4980469 8.0546875 L 4.8339844 8.0546875 L 4.8339844 10.537109 L 8.0546875 10.537109 L 8.0546875 11.068359 L 4.2207031 11.068359 L 4.2207031 4.8320312 z M 9.7265625 4.9394531 L 9.7265625 6.4160156 L 11.580078 6.4160156 L 11.580078 6.9101562 L 9.7265625 6.9101562 L 9.7265625 9.3867188 C 9.7265625 9.6507187 9.7470625 9.8652033 9.7890625 10.033203 C 9.8370625 10.195203 9.9042812 10.322109 9.9882812 10.412109 C 10.072282 10.502109 10.172969 10.561797 10.292969 10.591797 C 10.412969 10.621797 10.545453 10.636719 10.689453 10.636719 C 10.935453 10.636719 11.133203 10.610641 11.283203 10.556641 C 11.433203 10.496641 11.550766 10.442531 11.634766 10.394531 L 11.779297 10.880859 C 11.695297 10.934859 11.547891 10.996359 11.337891 11.068359 C 11.127891 11.134359 10.900297 11.167969 10.654297 11.167969 C 10.366297 11.167969 10.121828 11.132547 9.9238281 11.060547 C 9.7318281 10.982547 9.5770313 10.86875 9.4570312 10.71875 C 9.3430312 10.56275 9.2608906 10.370578 9.2128906 10.142578 C 9.1648906 9.9145783 9.140625 9.6440313 9.140625 9.3320312 L 9.140625 5.0488281 L 9.7265625 4.9394531 z "
     id="path4" />
</svg>

<svg xmlns="http://www.w3.org/2000/svg" viewBox="0 0 16 16">
 <path d="m 1.6 0 c -0.886 0 -1.6 0.713 -1.6 1.6 l 0 12.801 c 0 0.886 0.713 1.6 1.6 1.6 l 12.801 0 c 0.886 0 1.6 -0.713 1.6 -1.6 l 0 -12.801 c 0 -0.886 -0.713 -1.6 -1.6 -1.6 l -12.801 0 z m 2.621 4.832 l 3.602 0 l 0 0.531 l -2.988 0 l 0 2.168 l 2.664 0 l 0 0.523 l -2.664 0 l 0 2.482 l 3.221 0 l 0 0.531 l -3.834 0 l 0 -6.236 z m 5.506 0.107 l 0 1.477 l 1.854 0 l 0 0.494 l -1.854 0 l 0 2.477 c 0 0.264 0.021 0.478 0.063 0.646 c 0.048 0.162 0.115 0.289 0.199 0.379 c 0.084 0.09 0.185 0.15 0.305 0.18 c 0.12 0.03 0.252 0.045 0.396 0.045 c 0.246 0 0.444 -0.026 0.594 -0.08 c 0.15 -0.06 0.268 -0.114 0.352 -0.162 l 0.145 0.486 c -0.084 0.054 -0.231 0.116 -0.441 0.188 c -0.21 0.066 -0.438 0.1 -0.684 0.1 c -0.288 0 -0.532 -0.035 -0.73 -0.107 c -0.192 -0.078 -0.347 -0.192 -0.467 -0.342 c -0.114 -0.156 -0.196 -0.348 -0.244 -0.576 c -0.048 -0.228 -0.072 -0.499 -0.072 -0.811 l 0 -4.283 l 0.586 -0.109 z" style="fill:#ececec;fill-opacity:1"/>
</svg>
